icons-mns/password-close.svg

<svg height="1em" width="auto" viewBox="0 0 105 105" fill="currentColor" xmlns="http://www.w3.org/2000/svg">
<path d="M6.78161 1.12233C10.3573 5.73059 14.8793 9.4969 20.0347 12.1605C25.2098 14.7382 30.9133 16.0408 36.6801 15.962C42.447 16.0408 48.1505 14.7382 53.3256 12.1605C58.4941 9.49751 63.031 5.73165 66.6239 1.12233C67.2919 0.473256 68.1625 0.0802716 69.0858 0.0110176C70.0091 -0.0582364 70.9273 0.200572 71.6825 0.7429C72.4377 1.28523 72.9825 2.07715 73.2233 2.98237C73.4641 3.88759 73.3857 4.84948 73.0016 5.70249C68.9932 11.6673 63.5843 16.5305 57.2608 19.8552C50.9024 23.218 43.853 25.0221 36.6801 25.1223C29.5321 25.0694 22.4969 23.312 16.1447 19.9926C9.80791 16.6693 4.38399 11.8066 0.358627 5.83989C-0.0254228 4.98688 -0.10381 4.02499 0.136957 3.11977C0.377724 2.21455 0.922585 1.42263 1.67776 0.880304C2.43294 0.337977 3.3512 0.0791681 4.27449 0.148422C5.19778 0.217676 6.06836 0.610661 6.73638 1.25974L6.78161 1.12233Z" />
<path d="M32.6545 32.6341C31.388 28.054 31.0262 18.8936 37.8562 20.1303C42.3795 21.9166 41.5653 28.4662 40.932 32.4509C40.5781 33.2637 39.9984 33.9547 39.2636 34.4398C38.5288 34.9249 37.6705 35.1832 36.7933 35.1832C35.9161 35.1832 35.0578 34.9249 34.3229 34.4398C33.5881 33.9547 33.0084 33.2637 32.6545 32.4509V32.6341Z" />
<path d="M60.5627 27.3209C57.1251 24.3896 51.5163 16.695 58.0297 13.9927C63.0053 12.8934 65.7192 18.8476 67.5285 22.466C67.6475 23.3204 67.5258 24.1915 67.1773 24.979C66.8288 25.7664 66.2677 26.4381 65.5587 26.9168C64.8496 27.3954 64.0214 27.6615 63.1696 27.6844C62.3177 27.7073 61.4768 27.486 60.7436 27.0461L60.5627 27.3209Z" />
<path d="M12.8429 27.0458C16.2805 24.1145 21.8893 16.4198 15.3759 13.7175C10.4908 12.8015 7.68637 18.7557 6.01278 22.4656C5.88702 23.3267 6.00619 24.2063 6.35634 25.0013C6.70649 25.7963 7.27312 26.4738 7.98984 26.9544C8.70657 27.435 9.54372 27.6989 10.4032 27.7151C11.2627 27.7312 12.109 27.4991 12.8429 27.0458Z" />
</svg>

<svg xmlns="http://www.w3.org/2000/svg" width="auto" height="1em" fill="currentColor" viewBox="0 0 105 105">
    <path d="M6.782 1.122a40.05 40.05 0 0 0 13.253 11.039 36.2 36.2 0 0 0 16.645 3.801 36.2 36.2 0 0 0 16.646-3.801A40.2 40.2 0 0 0 66.624 1.122a3.944 3.944 0 0 1 5.059-.38 4.03 4.03 0 0 1 1.54 2.24 4.08 4.08 0 0 1-.221 2.72A43.2 43.2 0 0 1 57.26 19.855a45.4 45.4 0 0 1-20.58 5.267 45.05 45.05 0 0 1-20.536-5.13A43.3 43.3 0 0 1 .359 5.84a4.08 4.08 0 0 1-.222-2.72A4.03 4.03 0 0 1 1.677.88a3.944 3.944 0 0 1 5.06.38z"/>
    <path d="M32.655 32.634c-1.267-4.58-1.629-13.74 5.201-12.504 4.523 1.787 3.71 8.336 3.076 12.32a4.57 4.57 0 0 1-1.668 1.99 4.48 4.48 0 0 1-4.941 0 4.57 4.57 0 0 1-1.669-1.99zm27.908-5.314c-3.438-2.93-9.047-10.625-2.533-13.327 4.975-1.1 7.69 4.855 9.498 8.473a4.63 4.63 0 0 1-.35 2.513 4.57 4.57 0 0 1-1.62 1.938 4.48 4.48 0 0 1-4.815.13zm-47.72-.274c3.438-2.931 9.046-10.626 2.533-13.328-4.885-.916-7.69 5.038-9.363 8.748A4.63 4.63 0 0 0 6.356 25a4.56 4.56 0 0 0 1.634 1.953 4.48 4.48 0 0 0 4.853.091"/>
</svg>
